X:70
T:Jackie Small's
Z: id:dc-jig-58
M:6/8
L:1/8
K:C Major
EC|D3 BDD|ADD GEC|D3 BcB|AGE GEC|!
D3 BDD|ADD GAB|cee dcA|AGE G:|!
cd|ece dBd|dcA GAc|ece dBd|dcB A2c|!
ece dBd|dcA GAB|cee dcA|AGE G:|!

